src/actions/16/transform-rotate.svg

<svg viewBox="0 0 16 16" xmlns="http://www.w3.org/2000/svg">
 <defs>
  <style type="text/css">.ColorScheme-Text {
        color:#2e3440;
      }</style>
 </defs>
 <path class="ColorScheme-Text" d="m2 2v8h5v-5h2c1.108 0 2 0.89199 2 2v2h-2-1v2h-2v3h8v-5h-2v-2c0-1.662-1.338-3-3-3h-2v-2h-5z" fill="currentColor"/>
</svg>

<svg xmlns="http://www.w3.org/2000/svg" viewBox="0 0 16 16">
  <defs id="defs3051">
    <style type="text/css" id="current-color-scheme">
      .ColorScheme-Text {
        color:#2e3440;
      }
      </style>
  </defs>
 <path style="fill:currentColor;fill-opacity:1;stroke:none" 
       d="M 2 2 L 2 10 L 7 10 L 7 5 L 9 5 C 10.10801 5 11 5.89199 11 7 L 11 9 L 9 9 L 8 9 L 8 11 L 6 11 L 6 14 L 14 14 L 14 9 L 12 9 L 12 7 C 12 5.33799 10.66201 4 9 4 L 7 4 L 7 2 L 2 2 z "
     class="ColorScheme-Text"
     />
</svg>
